packages/foundations/assets/icons/functional/images/social/heart_20.svg

<svg width="20" height="20" viewBox="0 0 20 20" fill="none" xmlns="http://www.w3.org/2000/svg">
<g clip-path="url(#clip0_187_412)">
<path fill-rule="evenodd" clip-rule="evenodd" d="M6.44085 3.24072C7.58366 3.24072 8.74267 3.68146 9.60816 4.54685L10 4.93869L10.2938 4.67747C11.2432 3.83371 12.351 3.27343 13.5592 3.27343C15.9756 3.27343 18 5.10003 18 7.48575C18 8.75918 17.6387 9.96468 16.6939 10.8817L11.1429 16.2694C10.8446 16.5589 10.4244 16.7593 10 16.7593C9.57556 16.7593 9.1554 16.5589 8.85708 16.2694L3.30613 10.8817C2.41138 10.0133 2 8.85709 2 7.71427C2 5.26533 3.9918 3.24072 6.44085 3.24072ZM6.45236 5.24072C5.11171 5.24072 4 6.35083 4 7.68967C4 8.31003 4.25446 8.97041 4.71934 9.42034L10.0163 14.5469L15.3133 9.42034C15.8113 8.93822 16 8.24482 16 7.55905C16 6.25125 14.9209 5.27332 13.5803 5.27332C12.8937 5.27332 12.2658 5.56025 11.7492 6.057L10.8665 6.90599C10.6161 7.14673 10.3105 7.26512 10.0163 7.26512C9.68935 7.26512 9.37922 7.15144 9.13344 6.90599L8.18527 5.95899C7.7275 5.50195 7.10631 5.24072 6.45236 5.24072Z" fill="#1A1C1F"/>
</g>
<defs>
<clipPath id="clip0_187_412">
<rect width="20" height="20" fill="white"/>
</clipPath>
</defs>
</svg>

<svg xmlns="http://www.w3.org/2000/svg" width="20" height="20" fill="none"><g clip-path="url(#a)"><path fill="#1A1C1F" fill-rule="evenodd" d="M6.44 3.24c1.144 0 2.303.441 3.168 1.307l.392.392.294-.262c.95-.843 2.057-1.404 3.265-1.404C15.976 3.273 18 5.1 18 7.486c0 1.273-.361 2.479-1.306 3.396l-5.551 5.387c-.298.29-.719.49-1.143.49s-.845-.2-1.143-.49l-5.55-5.387C2.41 10.013 2 8.857 2 7.714c0-2.449 1.992-4.473 4.44-4.473m.012 2A2.47 2.47 0 0 0 4 7.69c0 .62.254 1.28.72 1.73l5.296 5.127 5.297-5.127c.498-.482.687-1.175.687-1.86 0-1.309-1.08-2.287-2.42-2.287-.686 0-1.314.287-1.83.784l-.883.849a1.222 1.222 0 0 1-1.733 0l-.949-.947a2.45 2.45 0 0 0-1.733-.718" clip-rule="evenodd"/></g><defs><clipPath id="a"><path fill="#fff" d="M0 0h20v20H0z"/></clipPath></defs></svg>
